dist/svgs/devui-icons/op/copy.svg

<svg xmlns="http://www.w3.org/2000/svg" viewBox="0 0 16 16"><path fill-rule="evenodd" d="M5 2h9v9h-2V4H5V2zM2 5h9v9H2V5zm2 3h3V7H4v1zm0 3h5v-1H4v1z"/></svg>

<?xml version="1.0" encoding="UTF-8"?>
<svg width="16px" height="16px" viewBox="0 0 16 16" version="1.1" xmlns="http://www.w3.org/2000/svg" xmlns:xlink="http://www.w3.org/1999/xlink">
    <title>操作/Copy</title>
    <desc>Created with Sketch.</desc>
    <g id="操作/Copy" stroke="none" stroke-width="1" fill="none" fill-rule="evenodd">
        <path d="M5,2 L14,2 L14,11 L12,11 L12,4 L5,4 L5,2 Z M2,5 L11,5 L11,14 L2,14 L2,5 Z M4,8 L7,8 L7,7 L4,7 L4,8 Z M4,11 L9,11 L9,10 L4,10 L4,11 Z" id="形状" fill="#293040"></path>
    </g>
</svg>
